X:1
T:Title
%%score { ( 1 3 5 ) | ( 2 4 ) }
L:1/8
M:4/4
K:D
V:1 treble nm="Grand Piano"
V:3 treble 
V:5 treble 
V:2 bass 
V:4 bass 
V:1
 z4 z2[Q:1/4=100] D2 | F2 F2 E2 D2 | A3 B A2 A2 | A2 d2 c2 B2 |[M:3/4] [DFA]4 [A,DF]2 | %5
[M:1/4] [F,D]2 |[M:4/4] [G,DG]3 [G,DG] [A,DG]2 [A,DF]2 | [B,DE]2 [CB]2 [A,DA]2 [FB]2 | %8
 [Ec]2 [Dd]2 [FB]2 [Ec]2 |[M:3/4] [DB]4 [A,CA]2 |[M:1/4] [CEA]2 |[M:4/4] A2 G2 z4 | %12
 [G,DG]2 A2 B2 B2 | e4 z4 |[M:3/4] d4 c2 |[M:1/4] A2 |[M:4/4] [Ad]2 [Ae]2 [DAd]2 A2 | %17
 [DAd]2 [Ae]2 [Ad]2 A2 | B2 E2 F2 G2 |[M:3/4] [CE]4 D2 |] %20
V:2
 z4 z2 [D,F,]2 | [D,A,D]2 [D,A,D]2 [D,G,A,]2 [D,F,]2 | [E,G,C]3 [E,G,C] [E,G,C]2 [E,G,C]2 | %3
 [F,A,D]2 [F,A,D]2 [G,D]2 [G,B,D]2 |[M:3/4] D,4 D,2 |[M:1/4] D,2 |[M:4/4] B,,3 B,, A,,2 A,,2 | %7
 G,,2 G,2 F,2 [D,A,]2 | [E,A,]2 [F,A,]2 [D,A,]2 [E,^G,]2 |[M:3/4] [A,,^G,]4 A,,2 |[M:1/4] G,2 | %11
[M:4/4] F,2 z D D,2 =C,2 | B,,2 [D,F,D]2 [G,D]2 [F,A,^D]2 | E3 E [^G,B,E]2 [E,G,E]2 | %14
[M:3/4] [A,E]4 [A,E]2 |[M:1/4] [G,C]2 |[M:4/4] [F,D]2 [G,C]2 F,2 A,2 | F,2 [G,C]2 [F,D]2 [D,=CD]2 | %18
 [G,B,D]2 [G,B,D]2 [F,B,D]2 [E,B,D]2 |[M:3/4] [A,,G,]4 [D,F,]2 |] %20
V:3
 x8 | x8 | x8 | x8 |[M:3/4] x6 |[M:1/4] x2 |[M:4/4] x8 | x8 | x8 |[M:3/4] x6 |[M:1/4] x2 | %11
[M:4/4] [Dd]3 d [DFd]2 [A,DF]2 | x8 | z2 z B B2 d2 |[M:3/4] x6 |[M:1/4] x2 |[M:4/4] x8 | x8 | x8 | %19
[M:3/4] x6 |] %20
V:4
 x8 | x8 | x8 | x8 |[M:3/4] x6 |[M:1/4] x2 |[M:4/4] x8 | x8 | x8 |[M:3/4] x6 |[M:1/4] x2 | %11
[M:4/4] z2 E,2 z4 | x8 | [E,^G,]2 F,2 z4 |[M:3/4] x6 |[M:1/4] x2 |[M:4/4] x8 | x8 | x8 | %19
[M:3/4] x6 |] %20
V:5
 x8 | x8 | x8 | x8 |[M:3/4] x6 |[M:1/4] x2 |[M:4/4] x8 | x8 | x8 |[M:3/4] x6 |[M:1/4] x2 | %11
[M:4/4] x8 | x8 | z2 A,2 z4 |[M:3/4] x6 |[M:1/4] x2 |[M:4/4] x8 | x8 | x8 |[M:3/4] x6 |] %20

